X:294
T:Tipperary Hills*  
T:Andrew Carr/Carey
B:CRE2.103 (gan ainm)
F:file ID: cre.2/294tipp_h
N:CRE has both parts repeating, not usual for slip jigs.
L:1/8
M:9/8
R:slip jig
Q:160
K:D
F2A A2F A3|G2B B2G B2G|F2A A2F A2z|BAG A2G F2D|
F2A A2F ABA|G2B B2G B2z|F2A A2F A3|dcA B2G F2D||
B2d d2c ded/e/|B2e e2d e2z|fed edc d2B|ABA A2G F2D|
B2d d2c d2z|B2e e2e e2g|fed edc d2B|ABA A2G F2D||

%%%

